X:1
T:Minuet In G Major
T:W. A. Mozart
T:K. 1
%%score { 1 | ( 2 3 ) }
L:1/8
Q:1/4=132
M:3/4
K:G
V:1 treble nm="Piano"
V:2 bass 
V:3 bass 
V:1
 bg | B2 c2 d2 | d2 c2 af | A2 B2 c2 | c2 B2 bg | e2 ge ^c2 | e^c AG F2 | (3BAG F2 E2 | D4 bg | %9
 B2 c2 d2 | d2 c2 af | A2 B2 c2 | c2 B2 bg | e2 ge ^c2 | e^c AG F2 | (3BAG F2 E2 | D4 dB | %17
 ^G2 =f2 e2 | d2 c2 cA | F2 e2 d2 | c2 B2 ec | A2 cA F2 | DF Ac B2 | (3ecA G2 F2 | G4 dB | %25
 ^G2 =f2 e2 | d2 c2 cA | F2 e2 d2 | c2 B2 ec | A2 cA F2 | DF Ac B2 | (3ecA G2 F2 | G4 cG || %33
[K:C] E2 E2 DE | E2 F2 dB | F2 F2 ED | D2 E2 e/d/c/B/ | A2 a2 d/c/B/A/ | G2 g2 d/B/A/G/ | %39
 e2 d2 ^F2 | A2 G2 cG | E2 E2 DE | E2 F2 dB | F2 F2 ED | D2 E2 e/d/c/B/ | A2 a2 d/c/B/A/ | %46
 G2 g2 d/B/A/G/ | e2 d2 ^F2 | A2 G2 ge | ^c2 c2 de | e2 =f2 fd | B2 B2 cd | d2 e2 a/g/f/e/ | %53
 d2 d'2 g/f/e/d/ | c2 c'2 g/e/d/c/ | a2 g2 B2 | d2 c2 ge | ^c2 c2 de | e2 =f2 fd | B2 B2 cd | %60
 d2 e2 a/g/f/e/ | d2 d'2 g/f/e/d/ | c2 c'2 g/e/d/c/ | a2 g2 B2 | d2 c2 bg ||[K:G] B2 c2 d2 | %66
 d2 c2 af | A2 B2 c2 | c2 B2 bg | e2 ge ^c2 | e^c AG F2 | (3BAG F2 E2 | D4 dB | ^G2 =f2 e2 | %74
 d2 c2 cA | F2 e2 d2 | c2 B2 ec | A2 cA F2 | DF Ac B2 | (3ecA G2 F2 | G6 |] %81
V:2
 z2 | G,2 A,2 B,2 | B,2 A,2 z2 | F,2 G,2 A,2 | A,2 G,2 z2 | G,4 E,2 | ^C,2 A,,2 D,2 | %7
 G,2 A,2 A,,2 | D,2 D,,2 z2 | G,2 A,2 B,2 | B,2 A,2 z2 | F,2 G,2 A,2 | A,2 G,2 z2 | G,4 E,2 | %14
 ^C,2 A,,2 D,2 | G,2 A,2 A,,2 | D,2 D,,2 z2 | E,2 D2 C2 | B,2 A,2 A,F, | D,2 C2 B,2 | A,2 G,2 z2 | %21
 C4 A,2 | F,2 D,2 G,2 | C2 D2 D,2 | G,4 z2 | E,2 D2 C2 | B,2 A,2 A,F, | D,2 C2 B,2 | A,2 G,2 z2 | %29
 C4 A,2 | F,2 D,2 G,2 | C2 D2 D,2 | G,4 C,E, ||[K:C] G,2 G,2 G,2 | G,4 G,2 | G,2 G,2 G,2 | %36
 [C,G,]4 C/B,/A,/G,/ | ^F,4 B,/A,/G,/F,/ | E,4 B,2 | C2 D2 D,2 | G,4 C,E, | G,2 G,2 G,2 | G,4 G,2 | %43
 G,2 G,2 G,2 | [C,G,]4 C/B,/A,/G,/ | ^F,4 B,/A,/G,/F,/ | E,4 B,2 | C2 D2 D,2 | G,4 E,G, | %49
 A,2 A,2 A,2 | A,4 G,2 | G,2 G,2 G,2 | G,4 F/E/D/C/ | B,4 E/D/C/B,/ | A,4 E,2 | F,2 G,2 G,,2 | %56
 C,4 E,G, | A,2 A,2 A,2 | A,4 G,2 | G,2 G,2 G,2 | G,4 F/E/D/C/ | B,4 E/D/C/B,/ | A,4 E,2 | %63
 F,2 G,2 G,,2 | C,4 z2 ||[K:G] G,2 A,2 B,2 | B,2 A,2 z2 | F,2 G,2 A,2 | A,2 G,2 z2 | G,4 E,2 | %70
 ^C,2 A,,2 D,2 | G,2 A,2 A,,2 | D,2 D,,2 z2 | E,2 D2 C2 | B,2 A,2 A,F, | D,2 C2 B,2 | A,2 G,2 z2 | %77
 C4 A,2 | F,2 D,2 G,2 | C2 D2 D,2 | G,6 |] %81
V:3
 x2 | x6 | x6 | x6 | x6 | x6 | x6 | x6 | x6 | x6 | x6 | x6 | x6 | x6 | x6 | x6 | x6 | x6 | x6 | %19
 x6 | x6 | x6 | x6 | x6 | x6 | x6 | x6 | x6 | x6 | x6 | x6 | x6 | x6 ||[K:C] C,2 C,2 B,,C, | %34
 C,2 D,2 B,,D, | B,,2 B,,2 B,,2 | x6 | x6 | x6 | x6 | x6 | C,2 C,2 B,,C, | C,2 D,2 B,,D, | %43
 B,,2 B,,2 B,,2 | x6 | x6 | x6 | x6 | x6 | A,2 G,2 F,E, | E,2 D,2 B,,D, | G,2 F,2 E,2 | %52
 D,2 C,2 x2 | x6 | x6 | x6 | x6 | A,2 G,2 F,E, | E,2 D,2 B,,D, | G,2 F,2 E,2 | D,2 C,2 x2 | x6 | %62
 x6 | x6 | x6 ||[K:G] x6 | x6 | x6 | x6 | x6 | x6 | x6 | x6 | x6 | x6 | x6 | x6 | x6 | x6 | x6 | %80
 x6 |] %81

